X:179 
T:Rolling in the Barrel (reel)
F:file ID: cre.5/179roll_b
B:CRE5.111 (Ag Rolladh sa Bhairille)
L:1/8
M:4/4
Q:180
R:reel
K:Em
E2DE BEDE2|B2AF DEFD|E2DE B2DE|1 BEA^c BEED:|\
[2 BEA^c BE E2||
e2ge bege|d^cdf a2fd|e2ge bege|dBA^c BE ~E2|
e2ge bege|d^cdf a2fd|efge fde^c|dBA^c BE ED|
"last time"E8|]

%%%

